X: 1624
T: Murphy's Hornpipe
R:hornpipe
N:"Collected by Tobin"
B:O'Neill's 1624
Z:Transcribed by Michael Hogan
M:C|
L:1/8
K:G
(3DEF | GABG EFGE | ABcA FGAF | GBdg ecAG | FGAF DEFD |
GABG EFGE | ABcA FGAF | GBdg ecAF | G2 GG G2 :|
|: (Bc) | dedc BcdB | (3efg ed cdef | gfgd ecAG | FGAF DEFD |
GABG EFGE | ABcA FGAF | GBdg ecAF | G2 GG G2 :||
